X:1
T:Jesu, Joy of Man’s Desiring
T:Jesu, Joy of Man’s Desiring
T:Johann Schopp, arranged by Johann Bach, 1723
T:Public Domain Courtesy of the Cyber Hymnal™
C:Johann Schopp, arranged by Johann Bach, 1723
Z:Public Domain
Z:Courtesy of the Cyber Hymnal™
%%score ( 1 2 ) ( 3 4 )
L:1/8
M:3/4
K:F
V:1 treble 
V:2 treble 
V:3 bass 
V:4 bass 
V:1
 [FA]4 [FB]2 | c4 [Ec]2 | B4 A2 | [CG]2 [CG]4 | [FA]4 [FB]2 | c4 [DA]2 | (GB A2) [EG]2 | [CF]6 | %8
 [FA]4 [FB]2 | c4 [Ec]2 | B4 A2 | [CG]2 [CG]4 | [FA]4 [FB]2 | c4 [DA]2 | (GB A2) [EG]2 | [CF]6 | %16
 [EG]4 [^FA]2 | [GB]4 [GB]2 | [GA]4 [^FA]2 | G2 G4 | [GB]4 [Fc]2 | d4 [Fd]2 x2 | c4 [Fc]2 | %23
 [FB]2 [FB]4 | [FA]4 [FB]2 | [Fc]4 [Fc]2 | B2 [FA]4 | [EG]6 | [FA]4 [FB]2 | c4 [DA]2 | %30
 (GB A2) [EG]2 | [CF]6 |] %32
V:2
 x6 | (G2 F2) x2 | (F2 C2) x2 | x6 | x6 | (F2 C2) x2 | D2 (ED) x2 | x6 | x6 | (G2 F2) x2 | %10
 (F2 C2) A2 | x6 | x6 | (F2 C2) x2 | D2 ED x2 | x6 | x6 | x6 | x6 | x6 | x6 | (F2 B2) x4 | %22
 (_E2 G2) x2 | x6 | x6 | x6 | (FE) x4 | x6 | x6 | (F2 C2) x2 | D2 (ED) x2 | x6 |] %32
V:3
 C4 [D,D]2 | G,4 [C,A,]2 | ([D,A,]2 [E,G,]2) F,2 | [C,E,]2 [C,E,]4 | C4 [D,D]2 | %5
 ([A,C]2 [A,,A,]2) [D,F,]2 | (B,G, CA,) [C,B,]2 | [F,,F,A,]6 | C4 [D,D]2 | G,4 [C,A,]2 | %10
 ([D,A,]2 [E,G,]2) F,2 | [C,E,]2 [C,E,]4 | C4 [D,D]2 | ([A,C]2 [A,,A,]2) [D,F,]2 | %14
 (B,A, C)A, [C,B,]2 | [F,,F,A,]6 | C4 [A,,C]2 | D4 _E2 | [C,_E]2 [A,,C]2 [D,D]2 | %19
 [G,,B,]2 [G,,B,]4 | [G,D]4 [A,C]2 | B,4 [G,B,]2 [D,B,]2 | G,4 [F,A,]2 | [B,,D]2 [B,,D]4 | %24
 [F,C]4 [D,D]2 | ([A,,C]2 [D,A,]2) [D,,D,A,]2 | ([G,,B,]2 [A,,C]2) [B,,D]2 | [C,G,]6 | C4 [D,D]2 | %29
 [A,C]2 [A,,A,]2 [D,F,]2 | (B,G, CA,) [C,B,]2 | [F,,F,A,]6 |] %32
V:4
 (F,2 E,2) x2 | (E,2 D,2) x2 | x4 F,2 | x6 | (F,2 E,2) x2 | x6 | B,,2 C,2 x2 | x6 | (F,2 E,2) x2 | %9
 (E,2 D,2) x2 | x4 F,2 | x6 | (F,2 E,2) x2 | x6 | B,,2 C,2 x2 | x6 | (C,2 B,,2) x2 | %17
 (G,,2 G,F,) (_E,D,) | x6 | x6 | x6 | B,2 x6 | (_E,2 D,2) x2 | x6 | x6 | x6 | x6 | x6 | %28
 (F,2 E,2) x2 | x6 | B,,2 C,2 x2 | x6 |] %32

